X: 1468
T: Nevâ Seyir
C: Erol Bingöl
O: Turkey
F: http://compmusic.upf.edu/node/140
N: neva--seyir--sofyan--1--erol_bingol
N: makam= neva
N: form= seyir
N: usul= sofyan = 4/4
M: 4/4
L: 1/16
K: C _2/4B ^3/4f  
Q: 1/4=60
%%MIDI tuningsystem comma53
d4 c2B2 c4 d4  | d2f4ed d8  | z2e4f2 g4 a2g2  | \
w:   |   |   | 
f3d e2ed d8  | 
w:   | 
a3g f4 g3f e4  | d2e2 f2g2 =f2e2 d2c2  | \
w:   |   | 
B2c2 d2e2 d2c2 c2B2  | 
w:   | 
B2A2 c2BA A8  | |


